X:1
T:Title
%%score { 1 | 2 }
L:1/8
Q:1/4=108
M:4/4
K:F
V:1 treble nm="Grand Piano"
V:2 bass 
V:1
 F3 F E2 F2 | D8 | E3 [^CG] [CF]2 [CE]2 | F8 | F3 F E2 F2 | D8 | [DG]2 [DG][DG] [DF]2 [FG]2 | %7
w: ?????~???????? * * *|||||||
 [EA]8 | AABA B3 A | [EA]>[EG] [EG][DF] [EA]2 [EG]2 | [EG][EG][EA][EG] [EA]3 [EG] | %11
w: ||||
 [EG]>F FE G2 F2 | D3 D F2 G2 | [^FA]4 [Fc]4 | B2 G>A B2 c2 | [FA]8 | D3 D E2 F2 | E4 [EG]4 | %18
w: |||||||
 A,2 A,A, F2 E2 | D8 |] %20
w: ||
V:2
 [D,A,D]3 [D,A,D] [D,A,D]2 [D,A,D]2 | [D,F,A,]8 | [^C,G,A,]3 [A,,A,] [A,,A,]2 [A,,A,]2 | [D,A,D]8 | %4
 [D,A,D]3 [D,A,D] [D,A,D]2 [D,A,D]2 | [D,F,A,]8 | [B,,G,]2 [B,,G,][B,,G,] [B,,G,]2 [D,G,]2 | %7
 [^C,G,]8 | [D,F,D][D,F,D][D,F,D][D,F,D] [D,F,D]3 [D,F,D] | %9
 [^C,G,]>[C,A,] [C,A,][D,A,] [C,A,]2 [C,A,]2 | [^C,G,][C,G,][C,G,][C,G,] [C,G,]3 [C,G,] | %11
 [D,G,]>[D,A,D] [D,A,D][D,A,D] [D,A,D]2 [D,A,D]2 | [D,F,A,]3 [D,F,A,] [D,A,D]2 [D,A,D]2 | %13
 [D,D]4 [D,A,]4 | [G,B,D]2 [G,B,D]>[G,B,D] [G,B,D]2 [G,B,D]2 | [D,A,]8 | %16
 [D,F,A,]3 [D,F,A,] [D,A,D]2 [D,A,D]2 | [^C,A,]4 [C,A,]4 | %18
 [^C,G,]2 [C,G,][C,G,] [C,G,A,]2 [C,F,A,]2 | [D,F,A,]8 |] %20

